public/logo.svg

<svg width="45" height="45" viewBox="0 0 45 45" fill="none" xmlns="http://www.w3.org/2000/svg">
<path d="m 40.0404,21.8266 c 0,-0.6677 -0.0713,-1.3276 -0.2162,-1.9797 C 39.8175,19.7728 39.8169,19.6981 39.8029,19.6251 39.367,17.3258 38.469,15.222 37.1189,13.3125 36.3612,12.242 35.5008,11.2626 34.4849,10.4274 34.418,10.3634 34.3546,10.2955 34.2838,10.237 31.4718,7.91867 28.2486,6.6657 24.6043,6.51462 23.5861,6.4725 22.5701,6.51743 21.5654,6.71175 21.4817,6.71849 21.3969,6.71849 21.3149,6.73366 19.1695,7.13858 17.1538,7.88105 15.3325,9.09976 11.4321,11.709 9.01877,15.3197 8.22688,19.948 c -0.53353,3.1187 -0.12355,6.1441 1.19794,9.0399 2.99678,6.5664 10.19118,10.901 17.98368,9.1038 6.2474,-1.4411 10.2669,-5.4106 12.122,-11.5463 0.4639,-1.5344 0.5891,-3.1187 0.5099,-4.7188 z m -1.6809,4.3818 C 36.6617,31.6741 33.1443,35.4077 27.5562,36.768 21.3289,38.2832 16.1777,36.2496 12.234,31.2377 10.1903,28.6408 9.15749,25.6406 9.21814,22.3225 9.29396,18.1974 10.9041,14.7132 13.8571,11.8624 c 2.0005,-1.93144 4.3795,-3.20295 7.1051,-3.80388 0.0354,-0.00787 0.0679,-0.02696 0.1022,-0.041 0.0157,0.0146 0.032,0.02583 0.0489,0.03426 0.0151,-0.0191 0.0314,-0.03538 0.0488,-0.04774 0.6706,-0.09098 1.3384,-0.2078 2.0157,-0.2443 3.8521,-0.20443 7.2533,0.9525 10.2378,3.37986 0.962,0.7823 1.8174,1.6764 2.5362,2.6738 1.4816,2.0578 2.4976,4.3234 2.8087,6.8715 0.1123,0.9165 0.1269,1.8337 0.1,2.7536 h -0.0017 c 0,0 -0.0051,0.0028 -0.0079,0.005 0.0028,0.004 0.0056,0.0079 0.009,0.0113 -0.1017,0.93 -0.2218,1.8578 -0.5004,2.7536 z" fill="white" />
<path d="M 36.4876,22.3248 C 32.4041,18.2733 28.3183,14.224 24.2387,10.1685 c -0.1573,-0.1561 -0.2348,-0.18306 -0.4089,-0.009 -2.9839,2.9817 -5.9756,5.9555 -8.9662,8.9309 -1.08,1.0744 -2.1617,2.1477 -3.2428,3.2215 -0.1287,0.0814 -0.2342,0.1662 -0.0461,0.2965 0.1657,0.1578 0.3314,0.3151 0.497,0.4729 0.0753,0.082 0.1472,0.1674 0.2258,0.246 3.8314,3.8111 7.6656,7.6206 11.4919,11.4379 0.1887,0.1882 0.2797,0.2258 0.4914,0.0135 2.1914,-2.1982 4.398,-4.3817 6.5979,-6.5721 0.907,-0.903 1.8067,-1.8129 2.7098,-2.7199 0.9874,-0.9688 1.973,-1.9393 2.9637,-2.9041 0.1455,-0.1421 0.0034,-0.1899 -0.0646,-0.2578 z m -11.844,10.1575 v -2.5801 c -0.0011,-0.9261 -0.0011,-1.8528 -0.0022,-2.7789 v -0.0208 c -6e-4,-0.4791 -6e-4,-0.9576 -0.0017,-1.4361 v -0.0202 c -6e-4,-0.5318 -0.0012,-1.0637 -0.0023,-1.5955 V 24.045 c 0,-0.2139 -5e-4,-0.4274 -0.0011,-0.6413 v -0.0231 c 0,-0.1409 0.0062,-0.2257 0.21,-0.2252 1.9955,0.0062 3.9909,0.0073 5.9858,0.0079 h 0.0168 c 0.9913,0 1.9826,0 2.9738,6e-4 0.0348,0 0.0697,0.0061 0.1674,0.0146 -3.1007,3.1304 -6.1907,6.2014 -9.3465,9.3038 z m 0.0023,-19.9241 c 0.1246,0.0376 0.1903,0.1292 0.2656,0.2028 1.0227,1.0019 2.0437,2.0061 3.0659,3.0086 0.0663,0.0651 0.1381,0.1241 0.2072,0.1859 0.0332,0.0325 0.0663,0.0645 0.0994,0.0966 0.1197,0.1505 0.2539,0.2869 0.4083,0.4021 0.0186,0.0494 0.0523,0.0837 0.1022,0.1011 0.0253,0.0567 0.0658,0.0977 0.123,0.1213 0.4583,0.465 0.9121,0.934 1.3749,1.3945 0.9991,0.9929 2.0027,1.9819 3.0041,2.9721 0.0219,0.0561 0.0606,0.096 0.1168,0.1179 0.0185,0.0528 0.0539,0.0888 0.1067,0.1073 0.0219,0.0567 0.0607,0.096 0.1174,0.1179 0.0191,0.0523 0.0545,0.0876 0.1067,0.1067 0.0618,0.0781 0.1236,0.1556 0.1842,0.232 -0.0595,0.0747 -0.1303,0.0427 -0.1898,0.0427 -2.9289,5e-4 -5.8583,-0.0034 -8.7871,0.0028 -0.2314,5e-4 -0.3157,-0.032 -0.3145,-0.2971 0.0045,-1.4838 0.005,-2.9682 0.0039,-4.452 v -0.0157 c 0.0039,-0.2039 0.0084,-0.4055 0.0185,-0.6094 0.009,-0.1904 -0.0056,-0.383 -0.0191,-0.5762 v -0.0152 c -0.0011,-1.0305 -0.0028,-2.0605 -0.0033,-3.0911 0,-0.0449 0.005,-0.0904 0.009,-0.1556 z m -1.3401,0.1039 c 0.0348,0.0646 0.0472,0.1387 0.0438,0.2275 -0.0017,0.0432 -0.0045,0.1016 0.0096,0.1466 v 0.6239 c -0.0421,0.0685 -0.0101,0.1668 -0.0101,0.241 -0.0062,2.5452 -0.0051,5.0905 -0.0051,7.6357 0,0.0416 0.0023,0.0826 0.0073,0.1219 -0.0174,0.0719 -0.0679,0.1146 -0.2134,0.114 -2.9272,-0.009 -5.8543,-0.0062 -8.7821,-0.0062 H 14.143 c 3.0575,-3.0703 6.0711,-6.0812 9.1628,-9.1044 z m 0.0545,19.618 c 0,0.0247 -0.0084,0.0488 -0.0213,0.1235 -3.1137,-3.049 -6.1621,-6.1121 -9.2488,-9.2426 h 1.6265 c 2.4598,0 4.9203,0.0012 7.3808,-0.0016 0.1651,0 0.2695,-0.0068 0.269,0.224 -0.009,2.9654 -0.0056,5.9308 -0.0062,8.8967 z" fill="white" />
<path d="m 19.58,32.0403 c -0.6076,0.0022 -1.2159,0.0061 -1.8235,-0.0073 -1.8523,-0.0422 -3.1822,-1.3861 -3.2052,-3.2355 -0.0073,-0.6077 -0.0023,-1.2154 -0.0045,-1.8236 0,-0.091 0.018,-0.1876 -0.0595,-0.2634 -0.3583,-0.3493 -0.715,-0.6992 -1.1143,-1.0901 0.0494,1.1833 -0.0281,2.3054 0.0472,3.427 0.1567,2.3257 1.9061,4.0465 4.2335,4.1189 1.0558,0.0326 2.1134,0.0096 3.1703,0.0107 0.0416,0 0.0949,0.0157 0.1219,-0.0528 -0.3359,-0.3173 -0.6768,-0.6346 -1.0115,-0.9587 -0.1028,-0.1 -0.2162,-0.1258 -0.3544,-0.1252 z" fill="white" />
<path d="m 28.5154,12.9643 c 0.5897,-0.0068 1.1789,-0.0096 1.768,0.0022 1.6837,0.0326 3.0777,1.2951 3.2608,2.9704 0.073,0.67 0.0134,1.3462 0.0236,2.0191 0.0011,0.0921 -0.0309,0.1937 0.0325,0.2729 0.3325,0.41 0.72,0.7649 1.1182,1.1232 -0.0146,-1.2361 0.1118,-2.461 -0.073,-3.6758 -0.2982,-1.9645 -1.8241,-3.5309 -3.7022,-3.7785 -1.2535,-0.1657 -2.5166,-0.0248 -3.7752,-0.0776 0.3229,0.3421 0.6296,0.6577 0.925,0.9829 0.119,0.1308 0.2533,0.1634 0.4223,0.1612 z" fill="white" />
<path d="m 14.4002,18.3261 c 0.1129,-0.1163 0.1483,-0.2427 0.1455,-0.4022 -0.0096,-0.5329 -0.0101,-1.0659 -0.0062,-1.5989 0.0152,-1.9117 1.4097,-3.3237 3.3231,-3.359 0.5796,-0.0102 1.1592,0.0016 1.7388,0.0011 0.0831,0 0.1988,0.0202 0.2443,-0.0242 0.365,-0.3622 0.7172,-0.7368 1.0654,-1.1007 -1.1025,0 -2.2162,-0.0472 -3.3248,0.0101 -2.1948,0.114 -3.928,1.8056 -4.156,3.9936 -0.1202,1.1564 -0.0213,2.3167 -0.0051,3.5096 0.3247,-0.3437 0.6459,-0.6902 0.975,-1.0294 z" fill="white" />
<path d="m 34.7118,27.5232 c 0.0095,-0.6201 0.0022,-1.2401 0.0022,-1.9303 -0.356,0.3667 -0.6908,0.6571 -0.9716,1.0019 -0.1623,0.0977 -0.201,0.2449 -0.2016,0.428 -0.0011,0.7576 0.0719,1.5208 -0.0309,2.2717 -0.2123,1.5518 -1.4726,2.6705 -3.0547,2.7357 -0.6632,0.0275 -1.3282,0.0056 -1.9926,0.0067 -0.1011,6e-4 -0.2027,-0.0174 -0.2875,0.0708 -0.3398,0.3521 -0.6841,0.7003 -1.0587,1.0828 1.2704,-0.0315 2.5026,0.0483 3.7331,-0.054 0.1668,-0.0134 0.3336,-0.0483 0.497,-0.0853 1.836,-0.4184 3.2878,-2.1359 3.3097,-3.9123 0.0106,-0.0258 0.0219,-0.0505 0.0219,-0.0797 V 29.012 c 0.0758,-0.4942 0.0264,-0.9929 0.0337,-1.4888 z" fill="white" />
</svg>

<svg width="172" height="45" viewBox="0 0 172 45" fill="none" xmlns="http://www.w3.org/2000/svg">
<path d="M40.0404 21.8266C40.0404 21.1589 39.9691 20.499 39.8242 19.8469C39.8175 19.7728 39.8169 19.6981 39.8029 19.6251C39.367 17.3258 38.469 15.222 37.1189 13.3125C36.3612 12.242 35.5008 11.2626 34.4849 10.4274C34.418 10.3634 34.3546 10.2955 34.2838 10.237C31.4718 7.91867 28.2486 6.6657 24.6043 6.51462C23.5861 6.4725 22.5701 6.51743 21.5654 6.71175C21.4817 6.71849 21.3969 6.71849 21.3149 6.73366C19.1695 7.13858 17.1538 7.88105 15.3325 9.09976C11.4321 11.709 9.01877 15.3197 8.22688 19.948C7.69335 23.0667 8.10333 26.0921 9.42482 28.9879C12.4216 35.5543 19.616 39.8889 27.4085 38.0917C33.6559 36.6506 37.6754 32.6811 39.5305 26.5454C39.9944 25.011 40.1196 23.4267 40.0404 21.8266ZM38.3595 26.2084C36.6617 31.6741 33.1443 35.4077 27.5562 36.768C21.3289 38.2832 16.1777 36.2496 12.234 31.2377C10.1903 28.6408 9.15749 25.6406 9.21814 22.3225C9.29396 18.1974 10.9041 14.7132 13.8571 11.8624C15.8576 9.93096 18.2366 8.65945 20.9622 8.05852C20.9976 8.05065 21.0301 8.03156 21.0644 8.01752C21.0801 8.03212 21.0964 8.04335 21.1133 8.05178C21.1284 8.03268 21.1447 8.0164 21.1621 8.00404C21.8327 7.91306 22.5005 7.79624 23.1778 7.75974C27.0299 7.55531 30.4311 8.71224 33.4156 11.1396C34.3776 11.9219 35.233 12.816 35.9518 13.8134C37.4334 15.8712 38.4494 18.1368 38.7605 20.6849C38.8728 21.6014 38.8874 22.5186 38.8605 23.4385H38.8588C38.8588 23.4385 38.8537 23.4413 38.8509 23.4435C38.8537 23.4475 38.8565 23.4514 38.8599 23.4548C38.7582 24.3848 38.6381 25.3126 38.3595 26.2084Z" fill="white"/>
<path d="M36.4876 22.3248C32.4041 18.2733 28.3183 14.224 24.2387 10.1685C24.0814 10.0124 24.0039 9.98544 23.8298 10.1595C20.8459 13.1412 17.8542 16.115 14.8636 19.0904C13.7836 20.1648 12.7019 21.2381 11.6208 22.3119C11.4921 22.3933 11.3866 22.4781 11.5747 22.6084C11.7404 22.7662 11.9061 22.9235 12.0717 23.0813C12.147 23.1633 12.2189 23.2487 12.2975 23.3273C16.1289 27.1384 19.9631 30.9479 23.7894 34.7652C23.9781 34.9534 24.0691 34.991 24.2808 34.7787C26.4722 32.5805 28.6788 30.397 30.8787 28.2066C31.7857 27.3036 32.6854 26.3937 33.5885 25.4867C34.5759 24.5179 35.5615 23.5474 36.5522 22.5826C36.6977 22.4405 36.5556 22.3927 36.4876 22.3248ZM24.6436 32.4823V29.9022C24.6425 28.9761 24.6425 28.0494 24.6414 27.1233V27.1025C24.6408 26.6234 24.6408 26.1449 24.6397 25.6664V25.6462C24.6391 25.1144 24.6385 24.5825 24.6374 24.0507V24.045C24.6374 23.8311 24.6369 23.6176 24.6363 23.4037V23.3806C24.6363 23.2397 24.6425 23.1549 24.8463 23.1554C26.8418 23.1616 28.8372 23.1627 30.8321 23.1633H30.8489C31.8402 23.1633 32.8315 23.1633 33.8227 23.1639C33.8575 23.1639 33.8924 23.17 33.9901 23.1785C30.8894 26.3089 27.7994 29.3799 24.6436 32.4823ZM24.6459 12.5582C24.7705 12.5958 24.8362 12.6874 24.9115 12.761C25.9342 13.7629 26.9552 14.7671 27.9774 15.7696C28.0437 15.8347 28.1155 15.8937 28.1846 15.9555C28.2178 15.988 28.2509 16.02 28.284 16.0521C28.4037 16.2026 28.5379 16.339 28.6923 16.4542C28.7109 16.5036 28.7446 16.5379 28.7945 16.5553C28.8198 16.612 28.8603 16.653 28.9175 16.6766C29.3758 17.1416 29.8296 17.6106 30.2924 18.0711C31.2915 19.064 32.2951 20.053 33.2965 21.0432C33.3184 21.0993 33.3571 21.1392 33.4133 21.1611C33.4318 21.2139 33.4672 21.2499 33.52 21.2684C33.5419 21.3251 33.5807 21.3644 33.6374 21.3863C33.6565 21.4386 33.6919 21.4739 33.7441 21.493C33.8059 21.5711 33.8677 21.6486 33.9283 21.725C33.8688 21.7997 33.798 21.7677 33.7385 21.7677C30.8096 21.7682 27.8802 21.7643 24.9514 21.7705C24.72 21.771 24.6357 21.7385 24.6369 21.4734C24.6414 19.9896 24.6419 18.5052 24.6408 17.0214V17.0057C24.6447 16.8018 24.6492 16.6002 24.6593 16.3963C24.6683 16.2059 24.6537 16.0133 24.6402 15.8201V15.8049C24.6391 14.7744 24.6374 13.7444 24.6369 12.7138C24.6369 12.6689 24.6419 12.6234 24.6459 12.5582ZM23.3058 12.6621C23.3406 12.7267 23.353 12.8008 23.3496 12.8896C23.3479 12.9328 23.3451 12.9912 23.3592 13.0362V13.6601C23.3171 13.7286 23.3491 13.8269 23.3491 13.9011C23.3429 16.4463 23.344 18.9916 23.344 21.5368C23.344 21.5784 23.3463 21.6194 23.3513 21.6587C23.3339 21.7306 23.2834 21.7733 23.1379 21.7727C20.2107 21.7637 17.2836 21.7665 14.3558 21.7665H14.143C17.2005 18.6962 20.2141 15.6853 23.3058 12.6621ZM23.3603 32.2801C23.3603 32.3048 23.3519 32.3289 23.339 32.4036C20.2253 29.3546 17.1769 26.2915 14.0902 23.161H15.7167C18.1765 23.161 20.637 23.1622 23.0975 23.1594C23.2626 23.1594 23.367 23.1526 23.3665 23.3834C23.3575 26.3488 23.3609 29.3142 23.3603 32.2801Z" fill="white"/>
<path d="M19.58 32.0403C18.9724 32.0425 18.3641 32.0464 17.7565 32.033C15.9042 31.9908 14.5743 30.6469 14.5513 28.7975C14.544 28.1898 14.549 27.5821 14.5468 26.9739C14.5468 26.8829 14.5648 26.7863 14.4873 26.7105C14.129 26.3612 13.7723 26.0113 13.373 25.6204C13.4224 26.8037 13.3449 27.9258 13.4202 29.0474C13.5769 31.3731 15.3263 33.0939 17.6537 33.1663C18.7095 33.1989 19.7671 33.1759 20.824 33.177C20.8656 33.177 20.9189 33.1927 20.9459 33.1242C20.61 32.8069 20.2691 32.4896 19.9344 32.1655C19.8316 32.0655 19.7182 32.0397 19.58 32.0403Z" fill="white"/>
<path d="M28.5154 12.9643C29.1051 12.9575 29.6943 12.9547 30.2834 12.9665C31.9671 12.9991 33.3611 14.2616 33.5442 15.9369C33.6172 16.6069 33.5576 17.2831 33.5678 17.956C33.5689 18.0481 33.5369 18.1497 33.6003 18.2289C33.9328 18.6389 34.3203 18.9938 34.7185 19.3521C34.7039 18.116 34.8303 16.8911 34.6455 15.6763C34.3473 13.7118 32.8214 12.1454 30.9433 11.8978C29.6898 11.7321 28.4267 11.873 27.1681 11.8202C27.491 12.1623 27.7977 12.4779 28.0931 12.8031C28.2121 12.9339 28.3464 12.9665 28.5154 12.9643Z" fill="white"/>
<path d="M14.4002 18.3261C14.5131 18.2098 14.5485 18.0834 14.5457 17.9239C14.5361 17.391 14.5356 16.858 14.5395 16.325C14.5547 14.4133 15.9492 13.0013 17.8626 12.966C18.4422 12.9558 19.0218 12.9676 19.6014 12.9671C19.6845 12.9671 19.8002 12.9873 19.8457 12.9429C20.2107 12.5807 20.5629 12.2061 20.9111 11.8422C19.8086 11.8422 18.6949 11.795 17.5863 11.8523C15.3915 11.9663 13.6583 13.6579 13.4303 15.8459C13.3101 17.0023 13.409 18.1626 13.4252 19.3555C13.7499 19.0118 14.0711 18.6653 14.4002 18.3261Z" fill="white"/>
<path d="M34.7118 27.5232C34.7213 26.9031 34.714 26.2831 34.714 25.5929C34.358 25.9596 34.0232 26.25 33.7424 26.5948C33.5801 26.6925 33.5414 26.8397 33.5408 27.0228C33.5397 27.7804 33.6127 28.5436 33.5099 29.2945C33.2976 30.8463 32.0373 31.965 30.4552 32.0302C29.792 32.0577 29.127 32.0358 28.4626 32.0369C28.3615 32.0375 28.2599 32.0195 28.1751 32.1077C27.8353 32.4598 27.491 32.808 27.1164 33.1905C28.3868 33.159 29.619 33.2388 30.8495 33.1365C31.0163 33.1231 31.1831 33.0882 31.3465 33.0512C33.1825 32.6328 34.6343 30.9153 34.6562 29.1389C34.6668 29.1131 34.6781 29.0884 34.6781 29.0592V29.012C34.7539 28.5178 34.7045 28.0191 34.7118 27.5232Z" fill="white"/>
<path d="M154.876 30.3537V13.9634H158.621V16.6951H158.792C159.09 15.749 159.603 15.0198 160.328 14.5076C161.061 13.9883 161.897 13.7287 162.836 13.7287C163.049 13.7287 163.288 13.7394 163.551 13.7607C163.821 13.7749 164.045 13.7998 164.223 13.8354V17.3887C164.059 17.3318 163.8 17.282 163.444 17.2394C163.096 17.1896 162.758 17.1647 162.43 17.1647C161.726 17.1647 161.093 17.3176 160.531 17.6235C159.976 17.9223 159.539 18.3384 159.219 18.872C158.898 19.4055 158.738 20.0209 158.738 20.718V30.3537H154.876Z" fill="white"/>
<path d="M144.92 30.6738C143.277 30.6738 141.858 30.3323 140.663 29.6494C139.475 28.9594 138.561 27.9848 137.92 26.7256C137.28 25.4594 136.96 23.969 136.96 22.2546C136.96 20.5686 137.28 19.0889 137.92 17.8156C138.568 16.5351 139.471 15.5392 140.631 14.8278C141.79 14.1093 143.153 13.75 144.718 13.75C145.728 13.75 146.681 13.9136 147.577 14.2409C148.481 14.561 149.278 15.059 149.968 15.7348C150.665 16.4106 151.213 17.2714 151.611 18.3171C152.009 19.3557 152.209 20.5935 152.209 22.0305V23.215H138.774V20.6113H148.506C148.499 19.8715 148.339 19.2134 148.026 18.6372C147.713 18.0539 147.275 17.595 146.713 17.2607C146.158 16.9263 145.511 16.7592 144.771 16.7592C143.981 16.7592 143.288 16.9512 142.69 17.3354C142.093 17.7124 141.627 18.2104 141.292 18.8293C140.965 19.4411 140.798 20.1133 140.791 20.8461V23.1189C140.791 24.0722 140.965 24.8903 141.314 25.5732C141.662 26.249 142.15 26.7683 142.776 27.1311C143.402 27.4868 144.134 27.6647 144.974 27.6647C145.536 27.6647 146.044 27.5864 146.5 27.4299C146.955 27.2663 147.35 27.028 147.684 26.715C148.019 26.402 148.271 26.0143 148.442 25.5519L152.049 25.9573C151.821 26.9106 151.387 27.7429 150.747 28.4543C150.114 29.1586 149.303 29.7063 148.314 30.0976C147.325 30.4817 146.194 30.6738 144.92 30.6738Z" fill="white"/>
<path d="M131.93 30.5884C131.282 30.5884 130.727 30.3608 130.265 29.9055C129.803 29.4502 129.575 28.8954 129.582 28.2409C129.575 27.6006 129.803 27.0529 130.265 26.5976C130.727 26.1423 131.282 25.9147 131.93 25.9147C132.556 25.9147 133.1 26.1423 133.562 26.5976C134.032 27.0529 134.27 27.6006 134.277 28.2409C134.27 28.6748 134.156 29.0696 133.936 29.4253C133.722 29.781 133.438 30.0656 133.082 30.279C132.733 30.4853 132.349 30.5884 131.93 30.5884Z" fill="white"/>
<path d="M115.703 20.75V30.3537H111.84V13.9634H115.532V16.7485H115.724C116.101 15.8308 116.702 15.1017 117.528 14.561C118.36 14.0204 119.388 13.75 120.611 13.75C121.742 13.75 122.728 13.9919 123.567 14.4756C124.414 14.9594 125.068 15.6601 125.531 16.5778C126 17.4955 126.231 18.6088 126.224 19.9177V30.3537H122.361V20.5153C122.361 19.4197 122.077 18.5625 121.508 17.9436C120.946 17.3247 120.167 17.0153 119.171 17.0153C118.495 17.0153 117.894 17.1647 117.367 17.4634C116.848 17.7551 116.439 18.1784 116.14 18.7333C115.849 19.2881 115.703 19.9604 115.703 20.75Z" fill="white"/>
<path d="M97.9928 20.75V30.3537H94.13V13.9634H97.8221V16.7485H98.0142C98.3912 15.8308 98.9923 15.1017 99.8175 14.561C100.65 14.0204 101.678 13.75 102.901 13.75C104.032 13.75 105.018 13.9919 105.857 14.4756C106.704 14.9594 107.358 15.6601 107.821 16.5778C108.29 17.4955 108.521 18.6088 108.514 19.9177V30.3537H104.651V20.5153C104.651 19.4197 104.367 18.5625 103.798 17.9436C103.236 17.3247 102.457 17.0153 101.461 17.0153C100.785 17.0153 100.184 17.1647 99.6575 17.4634C99.1382 17.7551 98.7291 18.1784 98.4303 18.7333C98.1387 19.2881 97.9928 19.9604 97.9928 20.75Z" fill="white"/>
<path d="M82.1929 30.6845C81.1543 30.6845 80.2188 30.4995 79.3865 30.1296C78.5613 29.7526 77.9068 29.1977 77.4231 28.465C76.9465 27.7322 76.7081 26.8288 76.7081 25.7546C76.7081 24.8298 76.8789 24.0651 77.2203 23.4604C77.5618 22.8557 78.0277 22.372 78.6182 22.0092C79.2086 21.6464 79.8738 21.3725 80.6136 21.1875C81.3606 20.9955 82.1324 20.8567 82.9292 20.7714C83.8895 20.6718 84.6685 20.5829 85.2661 20.5046C85.8636 20.4192 86.2976 20.2912 86.5679 20.1205C86.8453 19.9426 86.9841 19.6687 86.9841 19.2988V19.2348C86.9841 18.4309 86.7457 17.8085 86.2691 17.3674C85.7925 16.9263 85.106 16.7058 84.2097 16.7058C83.2635 16.7058 82.513 16.9121 81.9581 17.3247C81.4104 17.7373 81.0405 18.2246 80.8484 18.7866L77.2417 18.2744C77.5262 17.2785 77.9957 16.4462 78.6502 15.7775C79.3047 15.1017 80.105 14.5966 81.0511 14.2622C81.9973 13.9208 83.043 13.75 84.1883 13.75C84.978 13.75 85.764 13.8425 86.5466 14.0275C87.3291 14.2124 88.044 14.5183 88.6914 14.9451C89.3387 15.3649 89.858 15.9375 90.2493 16.6631C90.6477 17.3887 90.8469 18.2958 90.8469 19.3842V30.3537H87.1334V28.1022H87.0054C86.7706 28.5574 86.4398 28.9843 86.013 29.3826C85.5933 29.7739 85.0633 30.0905 84.4231 30.3323C83.7899 30.5671 83.0466 30.6845 82.1929 30.6845ZM83.1959 27.8461C83.9714 27.8461 84.6436 27.6931 85.2127 27.3872C85.7818 27.0742 86.2193 26.6616 86.5252 26.1494C86.8382 25.6372 86.9947 25.0788 86.9947 24.4741V22.5427C86.8738 22.6423 86.6675 22.7348 86.3758 22.8201C86.0913 22.9055 85.7711 22.9802 85.4155 23.0442C85.0598 23.1083 84.7076 23.1652 84.3591 23.215C84.0105 23.2648 83.7081 23.3074 83.452 23.343C82.8758 23.4213 82.3601 23.5493 81.9048 23.7272C81.4495 23.905 81.0903 24.154 80.827 24.4741C80.5638 24.7871 80.4322 25.1926 80.4322 25.6906C80.4322 26.402 80.6919 26.9391 81.2112 27.3019C81.7305 27.6647 82.3921 27.8461 83.1959 27.8461Z" fill="white"/>
<path d="M74.1052 8.50003V30.3537H70.2424V8.50003H74.1052Z" fill="white"/>
<path d="M52.0629 36.5V13.9634H55.8617V16.6738H56.0858C56.285 16.2754 56.566 15.8522 56.9288 15.404C57.2916 14.9487 57.7824 14.561 58.4013 14.2409C59.0202 13.9136 59.8099 13.75 60.7702 13.75C62.0365 13.75 63.1783 14.0737 64.1955 14.7211C65.2199 15.3613 66.0309 16.311 66.6285 17.5701C67.2331 18.8222 67.5355 20.3588 67.5355 22.1799C67.5355 23.9797 67.2402 25.5092 66.6498 26.7683C66.0594 28.0275 65.2555 28.9878 64.2382 29.6494C63.2209 30.311 62.0685 30.6418 60.7809 30.6418C59.8419 30.6418 59.0629 30.4853 58.444 30.1723C57.8251 29.8593 57.3271 29.4822 56.9501 29.0412C56.5802 28.593 56.2921 28.1697 56.0858 27.7714H55.9257V36.5H52.0629ZM55.851 22.1586C55.851 23.2185 56.0004 24.1469 56.2992 24.9436C56.6051 25.7404 57.0426 26.3628 57.6117 26.811C58.1879 27.2521 58.8851 27.4726 59.7032 27.4726C60.5568 27.4726 61.2718 27.2449 61.848 26.7897C62.4242 26.3273 62.8581 25.6977 63.1498 24.9009C63.4486 24.0971 63.598 23.183 63.598 22.1586C63.598 21.1413 63.4521 20.2378 63.1605 19.4482C62.8688 18.6586 62.4349 18.0397 61.8586 17.5915C61.2824 17.1433 60.5639 16.9192 59.7032 16.9192C58.878 16.9192 58.1772 17.1362 57.601 17.5701C57.0248 18.0041 56.5873 18.6123 56.2885 19.3948C55.9969 20.1774 55.851 21.0986 55.851 22.1586Z" fill="white"/>
</svg>
